boxicons/svg/regular/bx-cloud-light-rain.svg

<svg xmlns="http://www.w3.org/2000/svg" width="24" height="24" viewBox="0 0 24 24"><path d="M8 13h2v4H8zm0 5h2v2H8zm3-3h2v4h-2zm0 5h2v2h-2zm3-7h2v4h-2zm0 5h2v2h-2z"/><path d="M18.944 10.112C18.507 6.67 15.56 4 12 4 9.244 4 6.85 5.611 5.757 8.15 3.609 8.792 2 10.819 2 13c0 2.757 2.243 5 5 5v-2c-1.654 0-3-1.346-3-3 0-1.403 1.199-2.756 2.673-3.015l.581-.103.192-.559C8.149 7.273 9.895 6 12 6c2.757 0 5 2.243 5 5v1h1c1.103 0 2 .897 2 2s-.897 2-2 2h-1v2h1c2.206 0 4-1.794 4-4a4.008 4.008 0 0 0-3.056-3.888z"/></svg>

<svg xmlns="http://www.w3.org/2000/svg" width="24" height="24" viewBox="0 0 24 24"><path d="M8 13H10V17H8zM8 18H10V20H8zM11 15H13V19H11zM11 20H13V22H11zM14 13H16V17H14zM14 18H16V20H14z"/><path d="M18.944,10.112C18.507,6.67,15.56,4,12,4C9.244,4,6.85,5.611,5.757,8.15C3.609,8.792,2,10.819,2,13c0,2.757,2.243,5,5,5v-2 c-1.654,0-3-1.346-3-3c0-1.403,1.199-2.756,2.673-3.015l0.581-0.103l0.192-0.559C8.149,7.273,9.895,6,12,6c2.757,0,5,2.243,5,5v1h1 c1.103,0,2,0.897,2,2s-0.897,2-2,2h-1v2h1c2.206,0,4-1.794,4-4C22,12.119,20.695,10.538,18.944,10.112z"/></svg>
